src/img/calc/armpits.svg

<svg width="57" height="56" viewBox="0 0 57 56" fill="none" xmlns="http://www.w3.org/2000/svg">
<g clip-path="url(#clip0)">
<path d="M20.3077 14.153C21.6154 11.9344 22.6923 7.03825 21.9231 0C21.9231 0 22 15.8361 11 16.7541C11.0769 16.7541 17.6923 18.5902 20.3077 14.153Z" fill="#3A4561"/>
<path d="M13.0769 26.7759C13.0769 26.7759 18.4615 29.1475 19.6154 34.3496L20.5385 32.1311C20.5385 32.1311 18.4615 28.5354 13.0769 26.7759Z" fill="#3A4561"/>
<path d="M35.9231 0C35.9231 0 34.3846 10.3279 36 12.0109C37.6923 13.694 40.1538 13.1585 45.1538 12.776C50.1538 12.3934 53.4615 12.3169 57 16.3716C57 16.3716 54.4615 13.847 49.6923 13.541C44.6154 13.1585 37.5385 15.6066 34.9231 14.5355C31.1538 12.929 35.9231 0 35.9231 0Z" fill="#3A4561"/>
<path d="M21.3077 29.6831C21.3077 29.6831 19.3077 35.3443 22.1539 39.9345C24.6154 43.9126 31.3846 45.2897 34.7692 42.3061C34.7692 42.3061 31.1539 47.2787 25.1539 45.0602C17.8462 42.4591 19.5385 34.0438 19.5385 34.0438C19.5385 34.0438 19.9231 31.8252 21.3077 29.6831Z" fill="#3A4561"/>
<path d="M19.3077 56.0002C19.3077 56.0002 16.6923 38.5576 8.61539 31.6724C4.23077 28.0002 0 28.6887 0 28.6887C0 28.6887 4.46154 26.0111 10.6154 31.4428C20.1538 39.8581 19.3077 56.0002 19.3077 56.0002Z" fill="#3A4561"/>
<path d="M49.2308 43.071C49.2308 43.071 49.6154 49.1147 47.9231 56.0765C47.9231 56.0765 50.2308 51.4863 51.0769 42.459L49.2308 43.071Z" fill="#3A4561"/>
<path d="M50.9231 21.7266C50.9231 21.7266 51.2308 23.3331 50.3846 25.3987C49.4615 27.3878 48.7692 28.2293 51.5385 31.1364C54.5385 34.273 55.0769 39.0927 52 41.3113C49.4615 43.1473 45 42.6118 43.6154 41.9233C43.6154 41.9233 47.0769 45.1364 51.7692 43.0708C56.9231 40.7757 55.3846 33.967 52.4615 30.7539C50.2308 28.3058 50.6923 28.5353 51.3077 26.5462C52 24.4807 51.4615 22.4916 50.9231 21.7266Z" fill="#3A4561"/>
</g>
<defs>
<clipPath id="clip0">
<rect width="57" height="56" fill="white"/>
</clipPath>
</defs>
</svg>

<svg width="57" height="56" fill="none" xmlns="http://www.w3.org/2000/svg"><g clip-path="url(#clip0)" fill="#3A4561"><path d="M20.308 14.153C21.615 11.934 22.692 7.038 21.923 0 21.923 0 22 15.836 11 16.754c.077 0 6.692 1.836 9.308-2.601zM13.077 26.776s5.385 2.372 6.538 7.574l.924-2.219s-2.078-3.596-7.462-5.355zM35.923 0S34.385 10.328 36 12.01c1.692 1.684 4.154 1.149 9.154.766s8.307-.46 11.846 3.596c0 0-2.538-2.525-7.308-2.831-5.077-.383-12.154 2.066-14.769.995-3.77-1.607 1-14.536 1-14.536z"/><path d="M21.308 29.683s-2 5.661.846 10.252c2.461 3.978 9.23 5.355 12.615 2.371 0 0-3.615 4.973-9.615 2.754-7.308-2.6-5.616-11.016-5.616-11.016s.385-2.219 1.77-4.36zM19.308 56S16.692 38.558 8.615 31.672C4.231 28 0 28.69 0 28.69s4.462-2.678 10.615 2.754C20.154 39.858 19.308 56 19.308 56zM49.23 43.071s.385 6.044-1.307 13.006c0 0 2.308-4.59 3.154-13.618l-1.846.612z"/><path d="M50.923 21.727s.308 1.606-.538 3.672c-.923 1.989-1.616 2.83 1.154 5.737 3 3.137 3.538 7.957.461 10.175-2.538 1.836-7 1.3-8.385.612 0 0 3.462 3.213 8.154 1.148 5.154-2.295 3.616-9.104.693-12.317-2.231-2.448-1.77-2.219-1.154-4.208.692-2.065.154-4.054-.385-4.82z"/></g><defs><clipPath id="clip0"><path fill="#fff" d="M0 0h57v56H0z"/></clipPath></defs></svg>
